X: 75
T: Chahar ba qi
%%abc-version 2.0
%%abcx-abcm2ps-target-version 5.9.1 (29 Sep 2008)
%%abc-creator hum2abc beta
%%abcx-conversion-date 2013/10/02 07:44:27
%%abc-edited-by Helmut Schaffrath
%%humdrum-veritas 3909114861
%%humdrum-veritas-data 2615431549
%%continueall 1
%%barnumbers 0
L: 1/8
M: 4/4
K: F
D G G G A G A d [I:setbarnb 1]| 
c2>f2d4 | 
D G G G A G A d | 
c8 | 
A2d> f A GF2 | 
D D F DC2C2 | 
A c F D C D A G | 
F8 |]  



